X: 34513
T: Rights Of Man, The
R: hornpipe
M: 4/4
K: Dminor
FG|:AB GA FGEF|DEFG Acde|f{gf}edc dcBA|B{cB}AGF G2 FG|
ABGA FGEF|DEFG Acde|f{gf}edc Afef||1 (3ddd [DA]2 [DA]2 FG:|2 (3ddd [DA]2 [DA]2 fg||
|:agaf defg|~a3f dfed|(3cdc =Bd cdef|gece g2fe|
dcde fefg|(3agf (3gfe fede|fedc Afef||1 (3ddd [DA]2 [DA]2 fg:|2 (3ddd [DA]2 [DA]2||

